dist/assets/img/footer-insta.svg

<svg width="30" height="30" viewBox="0 0 30 30" fill="none" xmlns="http://www.w3.org/2000/svg">
<circle cx="15" cy="15" r="15" fill="#474F60"/>
<mask id="mask0" style="mask-type:alpha" maskUnits="userSpaceOnUse" x="4" y="4" width="22" height="22">
<path d="M11.1107 6.03613H18.4607C21.2607 6.03613 23.5357 8.31113 23.5357 11.1111V18.4611C23.5357 19.8071 23.001 21.098 22.0493 22.0497C21.0975 23.0014 19.8067 23.5361 18.4607 23.5361H11.1107C8.31071 23.5361 6.03571 21.2611 6.03571 18.4611V11.1111C6.03571 9.76516 6.57039 8.47431 7.52214 7.52257C8.47389 6.57082 9.76473 6.03613 11.1107 6.03613V6.03613ZM10.9357 7.78613C10.1003 7.78613 9.29906 8.11801 8.70832 8.70875C8.11758 9.29949 7.78571 10.1007 7.78571 10.9361V18.6361C7.78571 20.3774 9.19446 21.7861 10.9357 21.7861H18.6357C19.4711 21.7861 20.2724 21.4543 20.8631 20.8635C21.4538 20.2728 21.7857 19.4716 21.7857 18.6361V10.9361C21.7857 9.19488 20.377 7.78613 18.6357 7.78613H10.9357ZM19.3795 9.09863C19.6695 9.09863 19.9477 9.21387 20.1529 9.41898C20.358 9.6241 20.4732 9.9023 20.4732 10.1924C20.4732 10.4825 20.358 10.7607 20.1529 10.9658C19.9477 11.1709 19.6695 11.2861 19.3795 11.2861C19.0894 11.2861 18.8112 11.1709 18.6061 10.9658C18.4009 10.7607 18.2857 10.4825 18.2857 10.1924C18.2857 9.9023 18.4009 9.6241 18.6061 9.41898C18.8112 9.21387 19.0894 9.09863 19.3795 9.09863ZM14.7857 10.4111C15.946 10.4111 17.0588 10.8721 17.8793 11.6925C18.6998 12.513 19.1607 13.6258 19.1607 14.7861C19.1607 15.9465 18.6998 17.0593 17.8793 17.8797C17.0588 18.7002 15.946 19.1611 14.7857 19.1611C13.6254 19.1611 12.5126 18.7002 11.6921 17.8797C10.8716 17.0593 10.4107 15.9465 10.4107 14.7861C10.4107 13.6258 10.8716 12.513 11.6921 11.6925C12.5126 10.8721 13.6254 10.4111 14.7857 10.4111V10.4111ZM14.7857 12.1611C14.0895 12.1611 13.4218 12.4377 12.9295 12.93C12.4373 13.4223 12.1607 14.0899 12.1607 14.7861C12.1607 15.4823 12.4373 16.15 12.9295 16.6423C13.4218 17.1346 14.0895 17.4111 14.7857 17.4111C15.4819 17.4111 16.1496 17.1346 16.6419 16.6423C17.1341 16.15 17.4107 15.4823 17.4107 14.7861C17.4107 14.0899 17.1341 13.4223 16.6419 12.93C16.1496 12.4377 15.4819 12.1611 14.7857 12.1611Z" fill="#262B37"/>
</mask>
<g mask="url(#mask0)">
<rect width="30" height="30" fill="#262B37"/>
</g>
</svg>

<svg width="30" height="30" viewBox="0 0 30 30" fill="none" xmlns="http://www.w3.org/2000/svg"><circle cx="15" cy="15" r="15" fill="#474F60"/><mask id="mask0" style="mask-type:alpha" maskUnits="userSpaceOnUse" x="4" y="4" width="22" height="22"><path d="M11.11 6.036h7.35a5.08 5.08 0 015.076 5.075v7.35a5.075 5.075 0 01-5.075 5.075h-7.35a5.079 5.079 0 01-5.075-5.075v-7.35a5.075 5.075 0 015.075-5.075zm-.174 1.75a3.15 3.15 0 00-3.15 3.15v7.7a3.148 3.148 0 003.15 3.15h7.7a3.15 3.15 0 003.15-3.15v-7.7a3.148 3.148 0 00-3.15-3.15h-7.7zM19.38 9.1a1.094 1.094 0 110 2.188 1.094 1.094 0 010-2.188zm-4.594 1.312a4.375 4.375 0 110 8.75 4.375 4.375 0 010-8.75zm0 1.75a2.625 2.625 0 100 5.25 2.625 2.625 0 000-5.25z" fill="#262B37"/></mask><g mask="url(#mask0)"><path fill="#262B37" d="M0 0h30v30H0z"/></g></svg>
